dist/img/svg/logo.svg

<svg width="368" height="279" viewBox="0 0 368 279" fill="none" xmlns="http://www.w3.org/2000/svg">
<path d="M183.392 1L127.458 86.4299C194.578 84.3589 216.222 64.8567 218.654 55.3645L183.392 1Z" fill="#E0171A" stroke="#E0171A"/>
<path d="M328.09 224.93H166.369C219.871 203.184 258.376 155.464 270.941 134.322L328.09 224.93Z" fill="#E0171A" stroke="#E0171A"/>
<path d="M261.213 61.8367C261.213 151.926 187.445 208.103 150.562 224.93C168.071 179.368 161.91 127.419 156.641 107.14C201.388 110.247 245 78.2323 261.213 61.8367Z" fill="#333333" stroke="#333333"/>
<path d="M367 240.463H1V278H367V240.463Z" fill="#333333" stroke="#333333"/>
<path d="M42.3418 224.93H142.049C157.614 161.764 135.564 111.455 122.594 94.1963L42.3418 224.93Z" fill="#E0171A" stroke="#E0171A"/>
<path d="M210.143 248.229C210.143 261.099 200.415 269.124 195.551 271.528C197.86 265.019 197.048 257.598 196.353 254.701C202.254 255.145 208.005 250.571 210.143 248.229Z" fill="white" stroke="white"/>
<path d="M81.5791 258.234L82.2746 261.23H82.4959L83.0333 258.1L86.6374 247.97H91.5377L85.1199 264.36C84.6351 265.616 84.1504 266.704 83.6656 267.624C83.1809 268.544 82.6645 269.318 82.1165 269.946C81.5685 270.552 80.9573 271.012 80.2829 271.326C79.6084 271.618 78.8286 271.763 77.9434 271.763C77.1846 271.763 76.584 271.719 76.1414 271.629C75.6987 271.539 75.2035 271.315 74.6555 270.956L75.8252 266.951C76.2257 267.153 76.584 267.276 76.9001 267.321C77.2373 267.366 77.5851 267.388 77.9434 267.388C79.0394 267.388 79.7981 266.603 80.2196 265.033L71.2095 247.97H76.7104L81.5791 258.234Z" fill="white"/>
<path d="M107.409 252.345H102.319C102.214 254.476 102.098 256.406 101.971 258.134C101.866 259.839 101.708 261.376 101.497 262.744C101.308 264.113 101.044 265.336 100.707 266.412C100.37 267.467 99.9481 268.398 99.4423 269.206C99.1051 269.722 98.7257 270.148 98.3042 270.485C97.9037 270.821 97.4822 271.09 97.0396 271.292C96.597 271.472 96.1649 271.595 95.7434 271.662C95.3219 271.752 94.932 271.797 94.5737 271.797C94.0257 271.797 93.5936 271.752 93.2775 271.662C92.9824 271.573 92.6557 271.438 92.2974 271.259L92.8032 267.086C93.0351 267.175 93.3091 267.22 93.6252 267.22C93.9835 267.22 94.3418 267.13 94.7001 266.951C95.0584 266.771 95.3746 266.48 95.6486 266.076C95.9858 265.582 96.2809 264.876 96.5338 263.956C96.8078 263.036 97.0291 261.847 97.1977 260.388C97.3874 258.908 97.5349 257.146 97.6403 255.105C97.7667 253.063 97.851 250.685 97.8932 247.97H112.088V271.528H107.409V252.345Z" fill="white"/>
<path d="M133.105 258.537L133.358 255.542H133.2L131.587 258.571L122.514 271.528H119.036V247.97H123.715V260.658L123.399 263.787H123.589L125.296 260.658L134.275 247.97H137.784V271.528H133.105V258.537Z" fill="white"/>
<path d="M160.978 270.518C160.283 271.034 159.366 271.404 158.228 271.629C157.09 271.876 155.92 271.999 154.718 271.999C153.306 271.999 151.947 271.775 150.64 271.326C149.355 270.877 148.206 270.159 147.194 269.172C146.204 268.185 145.413 266.917 144.823 265.369C144.233 263.821 143.938 261.948 143.938 259.749C143.938 257.46 144.275 255.542 144.95 253.994C145.624 252.424 146.488 251.167 147.542 250.225C148.596 249.26 149.766 248.564 151.051 248.138C152.337 247.712 153.601 247.499 154.845 247.499C156.215 247.499 157.364 247.589 158.291 247.768C159.239 247.948 160.019 248.161 160.63 248.407L159.714 252.581C159.187 252.334 158.565 252.154 157.848 252.042C157.153 251.93 156.268 251.874 155.193 251.874C154.244 251.874 153.38 252.042 152.6 252.379C151.842 252.693 151.188 253.175 150.64 253.826C150.092 254.476 149.66 255.295 149.344 256.283C149.049 257.27 148.901 258.425 148.901 259.749C148.901 260.916 149.038 261.981 149.312 262.946C149.586 263.911 149.997 264.741 150.545 265.436C151.093 266.132 151.789 266.67 152.632 267.052C153.475 267.433 154.455 267.624 155.572 267.624C156.605 267.624 157.469 267.523 158.164 267.321C158.881 267.119 159.513 266.861 160.061 266.547L160.978 270.518Z" fill="white"/>
<path d="M181.885 270.518C181.189 271.034 180.272 271.404 179.134 271.629C177.996 271.876 176.826 271.999 175.625 271.999C174.213 271.999 172.853 271.775 171.547 271.326C170.261 270.877 169.112 270.159 168.101 269.172C167.11 268.185 166.32 266.917 165.73 265.369C165.139 263.821 164.844 261.948 164.844 259.749C164.844 257.46 165.182 255.542 165.856 253.994C166.53 252.424 167.395 251.167 168.448 250.225C169.502 249.26 170.672 248.564 171.958 248.138C173.243 247.712 174.508 247.499 175.751 247.499C177.121 247.499 178.27 247.589 179.197 247.768C180.146 247.948 180.926 248.161 181.537 248.407L180.62 252.581C180.093 252.334 179.471 252.154 178.755 252.042C178.059 251.93 177.174 251.874 176.099 251.874C175.151 251.874 174.287 252.042 173.507 252.379C172.748 252.693 172.095 253.175 171.547 253.826C170.999 254.476 170.567 255.295 170.25 256.283C169.955 257.27 169.808 258.425 169.808 259.749C169.808 260.916 169.945 261.981 170.219 262.946C170.493 263.911 170.904 264.741 171.452 265.436C172 266.132 172.695 266.67 173.538 267.052C174.381 267.433 175.361 267.624 176.478 267.624C177.511 267.624 178.375 267.523 179.071 267.321C179.787 267.119 180.42 266.861 180.968 266.547L181.885 270.518Z" fill="white"/>
<path d="M230.27 261.566H229.037V271.528H224.358V247.97H229.037V258.335L230.143 257.831L236.783 247.97H242.125L235.107 257.831L233.273 259.109L235.17 260.456L243.2 271.528H237.415L230.27 261.566Z" fill="white"/>
<path d="M246.666 259.749C246.666 257.819 246.898 256.092 247.362 254.566C247.825 253.041 248.489 251.762 249.353 250.73C250.238 249.675 251.313 248.879 252.578 248.34C253.843 247.779 255.276 247.499 256.878 247.499C258.585 247.499 260.071 247.802 261.335 248.407C262.621 248.991 263.685 249.821 264.528 250.898C265.392 251.975 266.035 253.265 266.457 254.768C266.899 256.271 267.121 257.932 267.121 259.749C267.121 261.678 266.878 263.406 266.394 264.932C265.93 266.457 265.255 267.747 264.37 268.802C263.485 269.834 262.41 270.63 261.146 271.191C259.881 271.73 258.458 271.999 256.878 271.999C255.17 271.999 253.674 271.707 252.388 271.124C251.124 270.518 250.059 269.677 249.195 268.6C248.352 267.523 247.72 266.233 247.298 264.73C246.877 263.227 246.666 261.566 246.666 259.749ZM251.63 259.749C251.63 260.916 251.735 261.981 251.946 262.946C252.156 263.911 252.473 264.741 252.894 265.436C253.316 266.132 253.853 266.67 254.506 267.052C255.181 267.433 255.971 267.624 256.878 267.624C258.543 267.624 259.839 267.018 260.766 265.807C261.694 264.595 262.157 262.576 262.157 259.749C262.157 258.627 262.062 257.584 261.873 256.619C261.683 255.654 261.367 254.824 260.924 254.129C260.503 253.411 259.955 252.861 259.28 252.48C258.627 252.076 257.826 251.874 256.878 251.874C255.234 251.874 253.948 252.502 253.021 253.758C252.093 255.015 251.63 257.012 251.63 259.749Z" fill="white"/>
<path d="M291.924 259.715L292.43 254.835H292.24L290.723 258.537L285.601 267.321H284.147L278.709 258.504L277.224 254.869H277.034L277.698 259.682V271.528H273.272V247.97H277.508L283.894 258.84L285.096 261.432H285.254L286.297 258.773L292.399 247.97H296.603V271.528H291.924V259.715Z" fill="white"/>
</svg>

<svg width="368" height="279" viewBox="0 0 368 279" fill="none" xmlns="http://www.w3.org/2000/svg"><path d="M183.392 1l-55.934 85.43c67.12-2.071 88.764-21.573 91.196-31.066L183.392 1zM328.09 224.93H166.369c53.502-21.746 92.007-69.466 104.572-90.608l57.149 90.608z" fill="#E0171A" stroke="#E0171A"/><path d="M261.213 61.837c0 90.089-73.768 146.266-110.651 163.093 17.509-45.562 11.348-97.511 6.079-117.79 44.747 3.107 88.359-28.908 104.572-45.303zM367 240.463H1V278h366v-37.537z" fill="#333" stroke="#333"/><path d="M42.342 224.93h99.707c15.565-63.166-6.485-113.475-19.455-130.734L42.342 224.93z" fill="#E0171A" stroke="#E0171A"/><path d="M210.143 248.229c0 12.87-9.728 20.895-14.592 23.299 2.309-6.509 1.497-13.93.802-16.827 5.901.444 11.652-4.13 13.79-6.472z" fill="#fff" stroke="#fff"/><path d="M81.58 258.234l.695 2.996h.22l.538-3.13 3.604-10.13h4.9l-6.417 16.39a31.233 31.233 0 01-1.454 3.264c-.485.92-1.001 1.694-1.55 2.322a5.73 5.73 0 01-1.833 1.38c-.675.292-1.454.437-2.34.437-.758 0-1.359-.044-1.802-.134-.442-.09-.938-.314-1.486-.673l1.17-4.005c.4.202.759.325 1.075.37a7.88 7.88 0 001.043.067c1.096 0 1.855-.785 2.277-2.355l-9.01-17.063h5.5l4.87 10.264zm25.829-5.889h-5.09a242.324 242.324 0 01-.348 5.789 51.052 51.052 0 01-.474 4.61c-.189 1.369-.453 2.592-.79 3.668-.337 1.055-.759 1.986-1.265 2.794a5.397 5.397 0 01-1.138 1.279c-.4.336-.822.605-1.264.807-.443.18-.875.303-1.297.37-.421.09-.811.135-1.17.135-.547 0-.98-.045-1.295-.135a6.307 6.307 0 01-.98-.403l.505-4.173c.232.089.506.134.822.134.359 0 .717-.09 1.075-.269.358-.18.675-.471.949-.875.337-.494.632-1.2.885-2.12.274-.92.495-2.109.664-3.568.19-1.48.337-3.242.442-5.283.127-2.042.211-4.42.253-7.135h14.195v23.558h-4.679v-19.183zm25.696 6.192l.253-2.995h-.158l-1.613 3.029-9.073 12.957h-3.478V247.97h4.679v12.688l-.316 3.129h.19l1.707-3.129 8.979-12.688h3.509v23.558h-4.679v-12.991zm27.873 11.981c-.695.516-1.612.886-2.75 1.111-1.138.247-2.308.37-3.51.37-1.412 0-2.771-.224-4.078-.673a9.273 9.273 0 01-3.446-2.154c-.99-.987-1.781-2.255-2.371-3.803-.59-1.548-.885-3.421-.885-5.62 0-2.289.337-4.207 1.012-5.755.674-1.57 1.538-2.827 2.592-3.769 1.054-.965 2.224-1.661 3.509-2.087 1.286-.426 2.55-.639 3.794-.639 1.37 0 2.519.09 3.446.269.948.18 1.728.393 2.339.639l-.916 4.174c-.527-.247-1.149-.427-1.866-.539-.695-.112-1.58-.168-2.655-.168-.949 0-1.813.168-2.593.505a5.072 5.072 0 00-1.96 1.447c-.548.65-.98 1.469-1.296 2.457-.295.987-.443 2.142-.443 3.466 0 1.167.137 2.232.411 3.197.274.965.685 1.795 1.233 2.49a5.495 5.495 0 002.087 1.616c.843.381 1.823.572 2.94.572 1.033 0 1.897-.101 2.592-.303a8.368 8.368 0 001.897-.774l.917 3.971zm20.907 0c-.696.516-1.613.886-2.751 1.111-1.138.247-2.308.37-3.509.37-1.412 0-2.772-.224-4.078-.673a9.257 9.257 0 01-3.446-2.154c-.991-.987-1.781-2.255-2.371-3.803-.591-1.548-.886-3.421-.886-5.62 0-2.289.338-4.207 1.012-5.755.674-1.57 1.539-2.827 2.592-3.769 1.054-.965 2.224-1.661 3.51-2.087 1.285-.426 2.55-.639 3.793-.639 1.37 0 2.519.09 3.446.269.949.18 1.729.393 2.34.639l-.917 4.174c-.527-.247-1.149-.427-1.865-.539-.696-.112-1.581-.168-2.656-.168-.948 0-1.812.168-2.592.505a5.064 5.064 0 00-1.96 1.447c-.548.65-.98 1.469-1.297 2.457-.295.987-.442 2.142-.442 3.466 0 1.167.137 2.232.411 3.197.274.965.685 1.795 1.233 2.49a5.491 5.491 0 002.086 1.616c.843.381 1.823.572 2.94.572 1.033 0 1.897-.101 2.593-.303a8.387 8.387 0 001.897-.774l.917 3.971zm48.385-8.952h-1.233v9.962h-4.679V247.97h4.679v10.365l1.106-.504 6.64-9.861h5.342l-7.018 9.861-1.834 1.278 1.897 1.347 8.03 11.072h-5.785l-7.145-9.962zm16.396-1.817c0-1.93.232-3.657.696-5.183.463-1.525 1.127-2.804 1.991-3.836a8.501 8.501 0 013.225-2.39c1.265-.561 2.698-.841 4.3-.841 1.707 0 3.193.303 4.457.908a8.391 8.391 0 013.193 2.491c.864 1.077 1.507 2.367 1.929 3.87.442 1.503.664 3.164.664 4.981 0 1.929-.243 3.657-.727 5.183-.464 1.525-1.139 2.815-2.024 3.87a8.998 8.998 0 01-3.224 2.389c-1.265.539-2.688.808-4.268.808-1.708 0-3.204-.292-4.49-.875a9.057 9.057 0 01-3.193-2.524c-.843-1.077-1.475-2.367-1.897-3.87-.421-1.503-.632-3.164-.632-4.981zm4.964 0c0 1.167.105 2.232.316 3.197.21.965.527 1.795.948 2.49a4.578 4.578 0 001.612 1.616c.675.381 1.465.572 2.372.572 1.665 0 2.961-.606 3.888-1.817.928-1.212 1.391-3.231 1.391-6.058 0-1.122-.095-2.165-.284-3.13-.19-.965-.506-1.795-.949-2.49-.421-.718-.969-1.268-1.644-1.649-.653-.404-1.454-.606-2.402-.606-1.644 0-2.93.628-3.857 1.884-.928 1.257-1.391 3.254-1.391 5.991zm40.294-.034l.506-4.88h-.19l-1.517 3.702-5.122 8.784h-1.454l-5.438-8.817-1.485-3.635h-.19l.664 4.813v11.846h-4.426V247.97h4.236l6.386 10.87 1.202 2.592h.158l1.043-2.659 6.102-10.803h4.204v23.558h-4.679v-11.813z" fill="#fff"/></svg>
